svgs/koduko.svg

<svg xmlns="http://www.w3.org/2000/svg" viewBox="0 0 192 192"><path d="M18.679 154.62c-1.338-.647-2.5-1.415-2.584-1.709-.083-.293.026-4.291.243-8.884.329-6.943 3.003-75.115 3.946-100.586.294-7.942.281-7.922 4.011-6.225l2.17.987-.257 5.466c-.142 3.006-.671 16.055-1.178 28.999a97512.137 97512.137 0 0 1-3.027 77.053c-.145 3.549-.405 6.368-.578 6.263-.173-.104-1.409-.718-2.746-1.364Zm67.611-16.879c-5.44-15.946-5.724-17.065-5.848-23.076-.128-6.193-.034-6.638 4.803-22.596 2.756-9.095 5.135-15.782 5.39-15.152.252.62 1.17 3.686 2.041 6.813l1.583 5.686-3.527 11.777c-1.94 6.477-3.527 12.203-3.527 12.724 0 .52 2.061 6.87 4.58 14.11l4.579 13.164-1.721 6.682c-.946 3.676-1.926 6.67-2.178 6.655-.252-.015-3.03-7.569-6.175-16.787Zm-54.511-7.445c-3.604-12.563-6.535-23.836-6.514-25.052l.114-6.65c.077-4.475.127-4.622 13.745-40.164.492-1.286 1.022-.147 2.4 5.155.972 3.743 1.768 7.225 1.769 7.739 0 .514-2.569 7.643-5.711 15.843-5.604 14.627-5.697 14.969-4.918 18.045.437 1.725 2.609 9.367 4.827 16.983 5.851 20.09 5.691 18.926 3.508 25.472-1.003 3.009-2.014 5.47-2.246 5.47-.232 0-3.37-10.278-6.974-22.841Zm41.783 18.931c-1.34-1.038-2.51-2.134-2.601-2.436-.217-.721 6.453-101.342 6.792-102.469.343-1.139 4.006.721 4.847 2.461.552 1.141.128 9.391-2.668 51.957-1.828 27.831-3.461 51.001-3.629 51.488-.167.488-1.401.038-2.741-1.001Zm52.318-2.077-1.29-4.469.978-25.518c.537-14.034.976-26.336.975-27.337-.001-1.002.709-3.619 1.577-5.816l1.578-3.995 5.975 3.159c3.287 1.737 6.21 3.158 6.497 3.158.375 0 .44-4.665.233-16.701l-.288-16.701h2.962c2.928 0 2.963.049 2.96 4.175-.001 2.297.335 21.153.747 41.904l.748 37.728-1.318 4.267c-1.261 4.083-1.693 4.404-10.036 7.441-11.05 4.023-10.754 4.054-12.298-1.295Zm12.44-18.435 5.146-1.794-.005-4.732c-.003-2.602-.127-7.179-.276-10.171l-.272-5.439-5.231-2.723c-2.877-1.498-5.308-2.466-5.402-2.152-.2.669-1.164 23.065-1.164 27.04 0 1.945.292 2.581 1.029 2.24.566-.261 3.345-1.283 6.175-2.269Zm-20.246 16.122-2.739-4.996-6.403 3.571c-8.047 4.487-7.976 4.491-9.721-.523l-1.452-4.176.438-24.292c.24-13.361.556-27.88.702-32.264l.264-7.971h5.423l-.043 11.767c-.023 6.471-.178 18.087-.343 25.811-.344 16.109-.622 15.302 4.305 12.501a246.323 246.323 0 0 1 4.136-2.306l1.422-.763.317-18.571c.174-10.213.436-21.156.583-24.316l.266-5.746 2.797 1.013c1.539.557 2.815 1.093 2.835 1.191.074.351-.68 35.253-.927 42.928l-.251 7.828 2.057 4.002c1.131 2.201 2.057 4.229 2.057 4.506 0 1.071-2.377 14.557-2.672 15.163-.172.352-1.545-1.608-3.051-4.357Zm-71.784-2.851c-1.362-5.928-1.425-9.811-.664-40.633.459-18.623.601-20.686 1.686-24.51l1.185-4.175H65.09l1.094 3.867c1.063 3.754 1.1 4.737 1.279 33.578l.184 29.712-1.313 3.565c-1.275 3.461-1.569 3.566-10.095 3.619l-8.782.055Zm15.3-32.12V92.405h-4.794c-5.564 0-5.052-1.958-5.463 20.877l-.253 14.044h10.51Zm92.786 31.448-1.21-5.685.602-26.918c.542-24.228.709-27.367 1.668-31.397l1.066-4.478 8.233-.03c7.837-.028 8.291.133 9.44 3.332l1.207 3.362.309 30.366.309 30.366-1.544 3.416c-1.467 3.245-1.978 3.414-10.207 3.384l-8.662-.033Zm15.619-19.832c0-3.214-.133-11.071-.296-17.46l-.296-11.617h-9.471l-.003 7.212c-.002 3.967-.134 11.824-.295 17.461l-.291 10.248h10.652v-5.844Z"/></svg>

<svg
    xmlns="http://www.w3.org/2000/svg"
    viewBox="0 0 192 192"
    id="vector">
    <path
        id="path"
        d="M 18.679 154.62 C 17.341 153.973 16.179 153.205 16.095 152.911 C 16.012 152.618 16.121 148.62 16.338 144.027 C 16.667 137.084 19.341 68.912 20.284 43.441 C 20.578 35.499 20.565 35.519 24.295 37.216 L 26.465 38.203 L 26.208 43.669 C 26.066 46.675 25.537 59.724 25.03 72.668 C 23.223 118.894 22.261 143.365 22.003 149.721 C 21.858 153.27 21.598 156.089 21.425 155.984 C 21.252 155.88 20.016 155.266 18.679 154.62 Z M 86.29 137.741 C 80.85 121.795 80.566 120.676 80.442 114.665 C 80.314 108.472 80.408 108.027 85.245 92.069 C 88.001 82.974 90.38 76.287 90.635 76.917 C 90.887 77.537 91.805 80.603 92.676 83.73 L 94.259 89.416 L 90.732 101.193 C 88.792 107.67 87.205 113.396 87.205 113.917 C 87.205 114.437 89.266 120.787 91.785 128.027 L 96.364 141.191 L 94.643 147.873 C 93.697 151.549 92.717 154.543 92.465 154.528 C 92.213 154.513 89.435 146.959 86.29 137.741 Z M 31.779 130.296 C 28.175 117.733 25.244 106.46 25.265 105.244 C 25.286 104.028 25.337 101.036 25.379 98.594 C 25.456 94.119 25.506 93.972 39.124 58.43 C 39.616 57.144 40.146 58.283 41.524 63.585 C 42.496 67.328 43.292 70.81 43.293 71.324 C 43.293 71.838 40.724 78.967 37.582 87.167 C 31.978 101.794 31.885 102.136 32.664 105.212 C 33.101 106.937 35.273 114.579 37.491 122.195 C 43.342 142.285 43.182 141.121 40.999 147.667 C 39.996 150.676 38.985 153.137 38.753 153.137 C 38.521 153.137 35.383 142.859 31.779 130.296 Z M 73.562 149.227 C 72.222 148.189 71.052 147.093 70.961 146.791 C 70.744 146.07 77.414 45.449 77.753 44.322 C 78.096 43.183 81.759 45.043 82.6 46.783 C 83.152 47.924 82.728 56.174 79.932 98.74 C 78.104 126.571 76.471 149.741 76.303 150.228 C 76.136 150.716 74.902 150.266 73.562 149.227 Z M 125.88 147.15 L 124.59 142.681 L 125.568 117.163 C 126.105 103.129 126.544 90.827 126.543 89.826 C 126.542 88.824 127.252 86.207 128.12 84.01 L 129.698 80.015 L 135.673 83.174 C 138.96 84.911 141.883 86.332 142.17 86.332 C 142.545 86.332 142.61 81.667 142.403 69.631 L 142.115 52.93 L 145.077 52.93 C 148.005 52.93 148.04 52.979 148.037 57.105 C 148.036 59.402 148.372 78.258 148.784 99.009 L 149.532 136.737 L 148.214 141.004 C 146.953 145.087 146.521 145.408 138.178 148.445 C 127.128 152.468 127.424 152.499 125.88 147.15 Z M 138.32 128.715 L 143.466 126.921 L 143.461 122.189 C 143.458 119.587 143.334 115.01 143.185 112.018 L 142.913 106.579 L 137.682 103.856 C 134.805 102.358 132.374 101.39 132.28 101.704 C 132.08 102.373 131.116 124.769 131.116 128.744 C 131.116 130.689 131.408 131.325 132.145 130.984 C 132.711 130.723 135.49 129.701 138.32 128.715 Z M 118.074 144.837 L 115.335 139.841 L 108.932 143.412 C 100.885 147.899 100.956 147.903 99.211 142.889 L 97.759 138.713 L 98.197 114.421 C 98.437 101.06 98.753 86.541 98.899 82.157 L 99.163 74.186 L 104.586 74.186 L 104.543 85.953 C 104.52 92.424 104.365 104.04 104.2 111.764 C 103.856 127.873 103.578 127.066 108.505 124.265 C 109.997 123.416 111.859 122.378 112.641 121.959 L 114.063 121.196 L 114.38 102.625 C 114.554 92.412 114.816 81.469 114.963 78.309 L 115.229 72.563 L 118.026 73.576 C 119.565 74.133 120.841 74.669 120.861 74.767 C 120.935 75.118 120.181 110.02 119.934 117.695 L 119.683 125.523 L 121.74 129.525 C 122.871 131.726 123.797 133.754 123.797 134.031 C 123.797 135.102 121.42 148.588 121.125 149.194 C 120.953 149.546 119.58 147.586 118.074 144.837 Z M 46.29 141.986 C 44.928 136.058 44.865 132.175 45.626 101.353 C 46.085 82.73 46.227 80.667 47.312 76.843 L 48.497 72.668 L 65.09 72.668 L 66.184 76.535 C 67.247 80.289 67.284 81.272 67.463 110.113 L 67.647 139.825 L 66.334 143.39 C 65.059 146.851 64.765 146.956 56.239 147.009 L 47.457 147.064 Z M 61.59 109.866 L 61.59 92.405 L 56.796 92.405 C 51.232 92.405 51.744 90.447 51.333 113.282 L 51.08 127.326 L 61.59 127.326 Z M 154.376 141.314 L 153.166 135.629 L 153.768 108.711 C 154.31 84.483 154.477 81.344 155.436 77.314 L 156.502 72.836 L 164.735 72.806 C 172.572 72.778 173.026 72.939 174.175 76.138 L 175.382 79.5 L 175.691 109.866 L 176 140.232 L 174.456 143.648 C 172.989 146.893 172.478 147.062 164.249 147.032 L 155.587 146.999 Z M 169.995 121.482 C 169.995 118.268 169.862 110.411 169.699 104.022 L 169.403 92.405 L 159.932 92.405 L 159.929 99.617 C 159.927 103.584 159.795 111.441 159.634 117.078 L 159.343 127.326 L 169.995 127.326 L 169.995 121.482 Z"
        fill="#000000"
        stroke-width="12"/>
</svg>
